svg/fluentui-system-icons/ic_fluent_arrow_circle_down_right_16_regular.svg

<svg width="16" height="16" viewBox="0 0 16 16" fill="none" xmlns="http://www.w3.org/2000/svg">
<path d="M8 2C11.3137 2 14 4.68629 14 8C14 11.3137 11.3137 14 8 14C4.68629 14 2 11.3137 2 8C2 4.68629 4.68629 2 8 2ZM8 3C5.23858 3 3 5.23858 3 8C3 10.7614 5.23858 13 8 13C10.7614 13 13 10.7614 13 8C13 5.23858 10.7614 3 8 3ZM9.41089 6.00729L9.50076 5.99924C9.74622 5.99924 9.95037 6.17611 9.99271 6.40936L10.0008 6.49924L10.0002 9.52416L9.98901 9.60904L9.97023 9.67319L9.93501 9.74879L9.88369 9.82229L9.83816 9.86978L9.77138 9.92132L9.71121 9.95447L9.67318 9.97024L9.60862 9.98906L9.52321 10.0003L6.50076 10.0008C6.22462 10.0008 6.00076 9.77691 6.00076 9.50076C6.00076 9.2553 6.17764 9.05115 6.41089 9.00882L6.50076 9.00076L8.294 9L6.14712 6.8527C5.9736 6.67909 5.95438 6.40966 6.08943 6.21483L6.1473 6.14559C6.32091 5.97207 6.59034 5.95285 6.78517 6.0879L6.85441 6.14577L9 8.292L9.00076 6.49924C9.00076 6.25378 9.17764 6.04963 9.41089 6.00729L9.50076 5.99924L9.41089 6.00729Z" fill="#212121"/>
</svg>

<svg xmlns="http://www.w3.org/2000/svg" width="16" height="16"><path d="M8 2a6 6 0 1 1 0 12A6 6 0 0 1 8 2Zm0 1a5 5 0 1 0 0 10A5 5 0 0 0 8 3Zm1.41 3.007L9.5 6a.5.5 0 0 1 .493.41L10 6.5v3.025l-.012.085-.019.064-.035.076-.051.073-.046.048-.067.051-.06.033-.038.016-.064.02-.086.01H6.501a.5.5 0 0 1-.09-.991L6.5 9h1.794L6.147 6.853a.5.5 0 0 1-.058-.638l.058-.07a.5.5 0 0 1 .638-.057l.07.058L9 8.292V6.499a.5.5 0 0 1 .41-.492L9.5 6l-.09.008Z"/></svg>
